groups/phosphorus/phosphine.svg

<?xml version='1.0' encoding='iso-8859-1'?>
<svg version='1.1' baseProfile='full'
              xmlns='http://www.w3.org/2000/svg'
                      xmlns:rdkit='http://www.rdkit.org/xml'
                      xmlns:xlink='http://www.w3.org/1999/xlink'
                  xml:space='preserve'
width='256px' height='256px' viewBox='0 0 256 256'>
<!-- END OF HEADER -->
<rect style='opacity:1.0;fill:#FFFFFF;stroke:none' width='256.0' height='256.0' x='0.0' y='0.0'> </rect>
<path class='bond-0 atom-0 atom-1' d='M 37.3,127.8 L 148.8,127.8' style='fill:none;fill-rule:evenodd;stroke:#000000;stroke-width:2.0px;stroke-linecap:butt;stroke-linejoin:miter;stroke-opacity:1' />
<path class='atom-1' d='M37.2695,191.226 C42.0264,191.226 42.0264,184.883 37.2695,184.883 C32.5125,184.883 32.5125,178.541 37.2695,178.541 C42.0264,178.541 42.0264,172.198 37.2695,172.198 C32.5125,172.198 32.5125,165.855 37.2695,165.855 C42.0264,165.855 42.0264,159.513 37.2695,159.513 C32.5125,159.513 32.5125,153.17 37.2695,153.17 C42.0264,153.17 42.0264,146.828 37.2695,146.828 C32.5125,146.828 32.5125,140.485 37.2695,140.485 C42.0264,140.485 42.0264,134.143 37.2695,134.143 C32.5125,134.143 32.5125,127.8 37.2695,127.8 C42.0264,127.8 42.0264,121.457 37.2695,121.457 C32.5125,121.457 32.5125,115.115 37.2695,115.115 C42.0264,115.115 42.0264,108.772 37.2695,108.772 C32.5125,108.772 32.5125,102.43 37.2695,102.43 C42.0264,102.43 42.0264,96.0872 37.2695,96.0872 C32.5125,96.0872 32.5125,89.7446 37.2695,89.7446 C42.0264,89.7446 42.0264,83.402 37.2695,83.402 C32.5125,83.402 32.5125,77.0595 37.2695,77.0595 C42.0264,77.0595 42.0264,70.7169 37.2695,70.7169 C32.5125,70.7169 32.5125,64.3743 37.2695,64.3743' style='fill:none;stroke:#7F7F7F;stroke-width:2.0px;stroke-linecap:butt;stroke-linejoin:miter;stroke-opacity:1' />
<text x='153.0' y='147.8' class='atom-1' style='font-size:40px;font-style:normal;font-weight:normal;fill-opacity:1;stroke:none;font-family:sans-serif;text-anchor:start;fill:#000000' >P</text>
<text x='178.5' y='147.8' class='atom-1' style='font-size:40px;font-style:normal;font-weight:normal;fill-opacity:1;stroke:none;font-family:sans-serif;text-anchor:start;fill:#000000' >H</text>
<text x='206.1' y='163.8' class='atom-1' style='font-size:26px;font-style:normal;font-weight:normal;fill-opacity:1;stroke:none;font-family:sans-serif;text-anchor:start;fill:#000000' >2</text>
</svg>

<svg height="256" viewBox="0 0 256 256" width="256" xmlns="http://www.w3.org/2000/svg"><path d="m0 0h256v256h-256z" fill="#fff"/><path d="m37.3 127.8h111.5" fill="none" stroke="#000" stroke-width="2"/><path d="m37.27 191.226c4.756 0 4.756-6.343 0-6.343-4.757 0-4.757-6.342 0-6.342 4.756 0 4.756-6.343 0-6.343-4.757 0-4.757-6.343 0-6.343 4.756 0 4.756-6.342 0-6.342-4.757 0-4.757-6.343 0-6.343 4.756 0 4.756-6.342 0-6.342-4.757 0-4.757-6.343 0-6.343 4.756 0 4.756-6.342 0-6.342-4.757 0-4.757-6.343 0-6.343 4.756 0 4.756-6.343 0-6.343-4.757 0-4.757-6.342 0-6.342 4.756 0 4.756-6.343 0-6.343-4.757 0-4.757-6.342 0-6.342 4.756 0 4.756-6.343 0-6.343-4.757 0-4.757-6.342 0-6.342 4.756 0 4.756-6.343 0-6.343-4.757 0-4.757-6.342 0-6.342 4.756 0 4.756-6.343 0-6.343-4.757 0-4.757-6.343 0-6.343" fill="none" stroke="#7f7f7f" stroke-width="2"/><g font-family="sans-serif"><text font-size="40" x="153" y="147.8">P</text><text font-size="40" x="178.5" y="147.8">H</text><text font-size="26" x="206.1" y="163.8">2</text></g></svg>
